X:1
T:Title
%%score ( 1 2 ) ( 3 4 ) ( 5 6 )
L:1/8
Q:1/4=120
M:4/4
K:C
V:1 treble nm="Picked Bass, Soprano Voice"
V:2 treble 
V:3 bass nm="Picked Bass, Tenor Voice"
V:4 bass 
V:5 bass nm="Picked Bass, Baritone Voice"
V:6 bass 
V:1
 d4 .d2 .d2 | G4 G4 | B2 .d2 .g2 d2 | e2 d2 B4 | d2 e2 d4 | d4 d2 G2 | B3 A G2 G2 | d4 d4 | %8
 d2 G2 B3 A | (3G2 z2 .G2 d4 | d4 g2 e2 | d3 e d2 G2 | d4 e2 d2 | B4 z2 e2- | [d-e]2 d6 |] %15
V:2
 x8 | x8 | x8 | x8 | x8 | x8 | x8 | x8 | x8 | x8 | x8 | x8 | x8 | z4 d4 | x8 |] %15
V:3
 z4 G,2 B,2 | D4 D4 | E2 G2 .E2 D2 | B,2[K:bass] A,2 G,4 | G,2 E,2 G,4 | D,4 G,2 B,2 | %6
 D3 E D2 B,2 | D4[K:bass] D,4 | G,2 z2 D3- D/-[DE-]/ | E2[K:treble] B,2- [B,D-]2 D2 | G4 D2 E2 | %11
 B,4 z4 | G,4 B,2 A,2 | G,4 G,2 E,2 | G,8 |] %15
V:4
 D,6 z2 | x8 | x8 | x2[K:bass] x6 | x8 | x8 | x8 | x4[K:bass] x4 | z2 B,4 z z/ A,/ | %9
 D4[K:treble] z4 | x8 | z2 z G, A,2 B,2 | x8 | x8 | x8 |] %15
V:5
 G,4 D,2 E,2 | D,4 D,4 | z2 z G,- G,2 z2 | E,2 D,2 G,4 | D,2 E,2 G,4 | G,4 z2 E,2- | %6
 [E,G,-]2 G,A, G,2 E,2 | G,4 G,4 | D,2 E,2 G,3 A, | G,2 E,2 G,4 | G,4 z2 B,2 | %11
 (5:4:4G,4 G,2 D,2 E,2 | D,4 E,2 z2 | G,4 z2 E,2- | [E,G,-]2 G,6 |] %15
V:6
 x8 | x8 | E,2 .G,2 D,4 | x8 | x8 | z4 D,4 | x8 | x8 | x8 | x8 | z4 G,4 | x8 | z4 z2 D,2- | %13
 D,2 z2 D,4 | x8 |] %15

